X: 1
T: The Old Copperplate
R: reel
M: 4/4
L: 1/8
K: Ador
A2 EA cAAe|aged cAFA|G2 DG BGBd|gedc BAGB|
A2 EA cAAe| aged cAGB|ABcd efge|aged cA A2 :|
ageg a2 eg|aged cA A2| gfef g2 ef|gfge dBGB|
ageg a2 eg|aged cAGB|ABcd efge|aged cA A2 :|


Tune 410	Setting 25958

